assets/images/Social/Icons/fb.svg

<svg width="100" height="100" viewBox="0 0 100 100" fill="none" xmlns="http://www.w3.org/2000/svg">
<circle cx="50" cy="50" r="50" fill="#F7C24D"/>
<path d="M45.7148 69V51.1693H41V44.7494H45.7148V39.2659C45.7148 34.957 48.4999 31 54.9172 31C57.5155 31 59.4368 31.2491 59.4368 31.2491L59.2854 37.2442C59.2854 37.2442 57.326 37.2251 55.1878 37.2251C52.8736 37.2251 52.5028 38.2916 52.5028 40.0617V44.7494H59.4694L59.1663 51.1693H52.5028V69H45.7148Z" fill="#010107"/>
</svg>

<svg xmlns="http://www.w3.org/2000/svg" width="100" height="100" fill="none" viewBox="0 0 100 100"><circle cx="50" cy="50" r="50" fill="#F7C24D"/><path fill="#010107" d="M45.715 69V51.17H41v-6.42h4.715v-5.484c0-4.309 2.785-8.266 9.202-8.266 2.599 0 4.52.25 4.52.25l-.152 5.994s-1.959-.019-4.097-.019c-2.314 0-2.685 1.067-2.685 2.837v4.687h6.966l-.303 6.42h-6.663V69h-6.788z"/></svg>
